X:119
T:None left at home but Wife and Bairn
T:Gun duin' aig a'bhaile
R:Jig
S:Simon Fraser Collection
N:No.211
O:Scottish
M:6/8
L:1/8
K:F
f/d/|c<Ac f2g|a>gf fed|cAA ~A2 f/d/|c<Ac f2g|a>gf fcA|AGG G2 f/>d/|
c<Ac f2g|a>gf fed|cAA ~A2c|(A/B/c)c (fa)g|(fa)g fdc|AGG G2||c|
(Ac)d (Ac)d|(fd)c Acd|cAA ~A2c|(Ac)d (Ac)d|fdc Acd|AGG ~G2c|
(Ac)d (Ac)d|fdc Acd|cAA ~A2c|(A/B/c)c (fa)g|(fa)g fdc|AGG G2||

